X:1194
T:My Maryanne
M:C|
L:1/8
R:Reel
B:O'Neill's 1194
N:Collected by McFadden
Z:Transcribed by Trish O'Neil
K:C
d|cded cAGB|Adde dcAB|cded cAGE|FAGE FGAB|
cded cAGB|Adde dcAB|cded cAGE|F2GE FED"end"D2||
egge TcBc.d|eaag aged|egge dfed|cAGAc2cd|
egge TcBc.d|eaab agef|gefd 3efg ed|cAGA c1||
